build/svg/cmd/32/graphicfiltermosaic.svg

<svg viewBox="0 0 32 32" xmlns="http://www.w3.org/2000/svg"><path d="m9 3v5h5v-5zm10 5v5h5v-5zm-10 5.021484v4.978516h5v-4.978516zm10 4.978516v5h5v-5zm5 5v4.978516h5v-4.978516z" fill="#e95420"/><path d="m14 3v5h5v-5zm10 5v5h5v-5zm-20 5v5h5v-5zm20 5v5h5v-5zm-10 5v5h5v-5z" fill="#2ecc71"/><path d="m24 3v5h5v-5zm-10 5v5h5v-5zm10 5.021484v4.978516h5v-4.978516zm-20 4.978516v5h5v-5zm5 5v5h5v-5zm10 .021484v4.978516h5v-4.978516z" fill="#fdbc4b"/><path d="m4 3v5h5v-5zm5 5v5h5v-5zm10 5.021484v4.978516h5v-4.978516zm0 4.978516h-5v5h5zm-15 5v5h5v-5z" fill="#762572"/><path d="m19 3v5h5v-5zm-15 5v5h5v-5zm10 5.021484v4.978516h5v-4.978516zm0 4.978516h-5v5h5z" fill="#c7162b"/></svg>

<svg viewBox="0 0 32 32" xmlns="http://www.w3.org/2000/svg"><path d="M9 3v5h5V3zm10 5v5h5V8zM9 13.021V18h5v-4.979zM19 18v5h5v-5zm5 5v4.979h5V23z" fill="#e95420"/><path d="M14 3v5h5V3zm10 5v5h5V8zM4 13v5h5v-5zm20 5v5h5v-5zm-10 5v5h5v-5z" fill="#2ecc71"/><path d="M24 3v5h5V3zM14 8v5h5V8zm10 5.021V18h5v-4.979zM4 18v5h5v-5zm5 5v5h5v-5zm10 .021V28h5v-4.979z" fill="#fdbc4b"/><path d="M4 3v5h5V3zm5 5v5h5V8zm10 5.021V18h5v-4.979zM19 18h-5v5h5zM4 23v5h5v-5z" fill="#762572"/><path d="M19 3v5h5V3zM4 8v5h5V8zm10 5.021V18h5v-4.979zM14 18H9v5h5z" fill="#c7162b"/></svg>
